app/images/dist/discord.svg

<svg width="48" height="48" viewBox="0 0 48 48" fill="none" xmlns="http://www.w3.org/2000/svg">
<path d="M39.2479 10.6526C36.4434 9.42484 33.4361 8.52026 30.2918 8.00217C30.2346 7.99217 30.1774 8.01716 30.1479 8.06714C29.7611 8.72349 29.3327 9.57976 29.0327 10.2528C25.6507 9.76969 22.2862 9.76969 18.9736 10.2528C18.6735 9.5648 18.2296 8.72349 17.8411 8.06714C17.8116 8.01883 17.7544 7.99384 17.6971 8.00217C14.5545 8.51861 11.5472 9.42318 8.74105 10.6526C8.71675 10.6626 8.69593 10.6793 8.68211 10.7009C2.97788 18.8322 1.41526 26.7636 2.18183 34.5967C2.1853 34.635 2.20784 34.6717 2.23906 34.695C6.00255 37.3321 9.64813 38.933 13.226 39.9942C13.2833 40.0108 13.3439 39.9909 13.3804 39.9459C14.2267 38.8431 14.9812 37.6803 15.628 36.4575C15.6662 36.3858 15.6298 36.3009 15.5518 36.2726C14.3551 35.8394 13.2156 35.3113 12.1195 34.7116C12.0328 34.6633 12.0259 34.545 12.1056 34.4884C12.3363 34.3234 12.567 34.1518 12.7873 33.9786C12.8271 33.947 12.8826 33.9403 12.9295 33.9603C20.1304 37.0972 27.9262 37.0972 35.0421 33.9603C35.0889 33.9386 35.1445 33.9453 35.186 33.9769C35.4064 34.1502 35.637 34.3234 35.8694 34.4884C35.9492 34.545 35.944 34.6633 35.8573 34.7116C34.7612 35.323 33.6217 35.8394 32.4233 36.2709C32.3452 36.2992 32.3105 36.3858 32.3487 36.4575C33.0095 37.6786 33.7639 38.8414 34.5946 39.9442C34.6293 39.9909 34.6918 40.0108 34.749 39.9942C38.3442 38.933 41.9898 37.3321 45.7533 34.695C45.7863 34.6717 45.8071 34.6367 45.8106 34.5983C46.728 25.5424 44.2739 17.6761 39.3051 10.7026C39.2929 10.6793 39.2722 10.6626 39.2479 10.6526ZM16.7034 29.8272C14.5354 29.8272 12.7491 27.9281 12.7491 25.5958C12.7491 23.2635 14.5008 21.3644 16.7034 21.3644C18.9233 21.3644 20.6923 23.2802 20.6576 25.5958C20.6576 27.9281 18.9059 29.8272 16.7034 29.8272ZM31.3237 29.8272C29.1558 29.8272 27.3695 27.9281 27.3695 25.5958C27.3695 23.2635 29.1211 21.3644 31.3237 21.3644C33.5437 21.3644 35.3126 23.2802 35.278 25.5958C35.278 27.9281 33.5437 29.8272 31.3237 29.8272Z" fill="white"/>
</svg>

<svg width="48" height="48" fill="none" xmlns="http://www.w3.org/2000/svg"><path d="M39.248 10.653a37.57 37.57 0 00-8.956-2.65.138.138 0 00-.144.064 23.653 23.653 0 00-1.115 2.186 35.088 35.088 0 00-10.06 0c-.3-.688-.743-1.53-1.132-2.186a.144.144 0 00-.144-.065 37.464 37.464 0 00-8.956 2.65.127.127 0 00-.059.049c-5.704 8.131-7.267 16.063-6.5 23.896a.143.143 0 00.057.098 37.198 37.198 0 0010.987 5.3.146.146 0 00.154-.05 24.712 24.712 0 002.248-3.487.13.13 0 00-.076-.185 24.564 24.564 0 01-3.432-1.561.131.131 0 01-.014-.224c.23-.165.461-.336.681-.51a.141.141 0 01.143-.018c7.2 3.137 14.996 3.137 22.112 0a.14.14 0 01.144.017c.22.173.451.346.683.511a.131.131 0 01-.012.224 23.043 23.043 0 01-3.434 1.559.132.132 0 00-.074.187 27.752 27.752 0 002.246 3.486.143.143 0 00.154.05 37.077 37.077 0 0011.004-5.299.134.134 0 00.058-.097c.917-9.056-1.537-16.922-6.506-23.895a.11.11 0 00-.057-.05zM16.703 29.827c-2.168 0-3.954-1.899-3.954-4.231s1.752-4.232 3.954-4.232c2.22 0 3.99 1.916 3.955 4.232 0 2.332-1.752 4.231-3.955 4.231zm14.62 0c-2.167 0-3.954-1.899-3.954-4.231s1.752-4.232 3.955-4.232c2.22 0 3.989 1.916 3.954 4.232 0 2.332-1.734 4.231-3.954 4.231z" fill="#fff"/></svg>
